src/assets/images/agenda-shape-2.svg

<svg height="364" viewBox="0 0 372 364" width="372" xmlns="http://www.w3.org/2000/svg"><path d="m1086.36683 254.244962c1.96146 32.382172-.44291 58.98268-9.90852 84.526455-10.46531 28.543925-29.40918 50.249454-55.90782 66.100441-21.86707 13.033035-45.493124 21.341139-70.802233 25.786703-25.752019 4.664199-51.339529 4.737077-77.002967-1.639757-21.284961-5.453712-40.456611-15.000743-58.12237-27.632948-27.093621-19.142192-50.737446-42.415025-69.992343-68.894102-12.528009-17.30855-22.487144-35.698125-27.118711-56.322629-4.55564-19.762112-2.720729-39.050517 3.935566-57.986678 6.580369-18.729673 16.767286-35.600954 28.801767-51.403357 18.602196-24.061921 39.988394-45.694571 64.905212-63.829073 17.77965-13.0330345 36.938646-23.4788962 58.742444-29.2727055 20.550997-5.368687 40.950139-4.7006378 61.425209.9717081 22.17078 6.0974681 41.962504 16.7862568 60.450809 29.9164624 21.259647 15.207231 39.950427 32.928757 55.338367 53.881212 15.09069 20.643089 25.561 44.063736 30.75057 68.784784 2.07535 10.895277 3.46735 21.559773 4.50502 27.013484z" fill="#fedf5f" fill-rule="evenodd" transform="matrix(1 0 0 -1 -715 434)"/></svg>

<?xml version="1.0" encoding="UTF-8"?>
<svg width="372px" height="364px" viewBox="0 0 372 364" version="1.1" xmlns="http://www.w3.org/2000/svg" xmlns:xlink="http://www.w3.org/1999/xlink">
    <!-- Generator: Sketch 51.2 (57519) - http://www.bohemiancoding.com/sketch -->
    <title>Shape Copy 2</title>
    <desc>Created with Sketch.</desc>
    <defs></defs>
    <g id="↳-Registration-(v2.2.1)" stroke="none" stroke-width="1" fill="none" fill-rule="evenodd">
        <g id="Landing-Page" transform="translate(-891.000000, -2350.000000)" fill="#FEDF5F">
            <g id="Agenda" transform="translate(176.000000, 2280.000000)">
                <path d="M1086.36683,254.244962 C1088.32829,286.627134 1085.92392,313.227642 1076.45831,338.771417 C1065.993,367.315342 1047.04913,389.020871 1020.55049,404.871858 C998.68342,417.904893 975.057366,426.212997 949.748257,430.658561 C923.996238,435.32276 898.408728,435.395638 872.74529,429.018804 C851.460329,423.565092 832.288679,414.018061 814.62292,401.385856 C787.529299,382.243664 763.885474,358.970831 744.630577,332.491754 C732.102568,315.183204 722.143433,296.793629 717.511866,276.169125 C712.956226,256.407013 714.791137,237.118608 721.447432,218.182447 C728.027801,199.452774 738.214718,182.581493 750.249199,166.77909 C768.851395,142.717169 790.237593,121.084519 815.154411,102.950017 C832.934061,89.9169825 852.093057,79.4711208 873.896855,73.6773115 C894.447852,68.3086245 914.846994,68.9766737 935.322064,74.6490196 C957.492844,80.7464877 977.284568,91.4352764 995.772873,104.565482 C1017.03252,119.772713 1035.7233,137.494239 1051.11124,158.446694 C1066.20193,179.089783 1076.67224,202.51043 1081.86181,227.231478 C1083.93716,238.126755 1085.32916,248.791251 1086.36683,254.244962 Z" id="Shape-Copy-2" transform="translate(901.000000, 252.000000) scale(1, -1) translate(-901.000000, -252.000000) "></path>
            </g>
        </g>
    </g>
</svg>
